X:431
T:Stan Chapman's
R:jig
C:Jerry Holland (1955-2009), Cape Breton, Canada
Z:hn-jig-431
M:6/8
L:1/8
K:A
~E3 EFA | ~B3 Bce | fea fec | ecA BAF |
~E3 EFA | ~B3 Bce | fea fec |1 ecA A2F :|2 ecA A2c ||
|: ~e3 ece | ~f3 fga | fec BAB | cAF Faf |
~e3 ecA | ~f3 fga | fec BAB |1 cAA Aaf :|2 cAA AGF || 

